modules/hawcons-stroke/icons/soccer-court.svg

<?xml version="1.0" encoding="UTF-8" standalone="no"?>
<svg width="32px" height="32px" viewBox="0 0 32 32" version="1.1" xmlns="http://www.w3.org/2000/svg" xmlns:xlink="http://www.w3.org/1999/xlink" xmlns:sketch="http://www.bohemiancoding.com/sketch/ns">
    <!-- Generator: Sketch 3.0.3 (7891) - http://www.bohemiancoding.com/sketch -->
    <title>icon 7 soccer court</title>
    <desc>Created with Sketch.</desc>
    <defs></defs>
    <g id="Page-1" stroke="none" stroke-width="1" fill="none" fill-rule="evenodd" sketch:type="MSPage">
        <g id="icon-7-soccer-court" sketch:type="MSArtboardGroup" fill="#929292">
            <path d="M3,21 L3,24.0000398 C3,24.5523026 3.44610862,25 3.99296544,25 L29.0070346,25 C29.5554342,25 30,24.5452911 30,24.0000398 L30,21 L30,21 L26,21 L26,12 L30,12 L30,8.9999602 C30,8.44769743 29.5538914,8 29.0070346,8 L3.99296544,8 C3.44456577,8 3,8.45470893 3,8.9999602 L3,12 L7,12 L7,21 L3,21 L3,21 Z M17,20.9725356 C19.2499753,20.7238135 21,18.8162769 21,16.5 C21,14.1837231 19.2499753,12.2761865 17,12.0274644 L17,8 L16,8 L16,12.0274644 C13.7500247,12.2761865 12,14.1837231 12,16.5 C12,18.8162769 13.7500247,20.7238135 16,20.9725356 L16,25 L17,25 L17,20.9725356 L17,20.9725356 L17,20.9725356 Z M17,19.9645556 C18.6961471,19.7219408 20,18.263236 20,16.5 C20,14.736764 18.6961471,13.2780592 17,13.0354444 L17,19.9645556 L17,19.9645556 L17,19.9645556 Z M16,13.0354444 C14.3038529,13.2780592 13,14.736764 13,16.5 C13,18.263236 14.3038529,19.7219408 16,19.9645556 L16,13.0354444 L16,13.0354444 L16,13.0354444 Z M3.99328744,7 C2.89242519,7 2,7.89092539 2,8.99742191 L2,24.0025781 C2,25.1057238 2.89971268,26 3.99328744,26 L29.0067126,26 C30.1075748,26 31,25.1090746 31,24.0025781 L31,8.99742191 C31,7.89427625 30.1002873,7 29.0067126,7 L3.99328744,7 L3.99328744,7 Z M27,13 L27,20 L30,20 L30,13 L27,13 L27,13 Z M3,13 L3,20 L6,20 L6,13 L3,13 L3,13 Z" id="soccer-court" sketch:type="MSShapeGroup"></path>
        </g>
    </g>
</svg>

<svg width="32" height="32" xmlns="http://www.w3.org/2000/svg"><path d="M3 21v3c0 .552.446 1 .993 1h25.014c.548 0 .993-.455.993-1v-3h-4v-9h4V9c0-.552-.446-1-.993-1H3.993C3.445 8 3 8.455 3 9v3h4v9H3zm14-.027a4.5 4.5 0 0 0 0-8.946V8h-1v4.027a4.5 4.5 0 0 0 0 8.946V25h1v-4.027zm0-1.008a3.5 3.5 0 0 0 0-6.93v6.93zm-1-6.93a3.5 3.5 0 0 0 0 6.93v-6.93zM3.993 7C2.893 7 2 7.89 2 8.997v15.006A2 2 0 0 0 3.993 26h25.014c1.1 0 1.993-.89 1.993-1.997V8.997A2 2 0 0 0 29.007 7H3.993zM27 13v7h3v-7h-3zM3 13v7h3v-7H3z" fill="#929292" fill-rule="evenodd"/></svg>
